X: 4777
T: Boys Of Malin, The
R: reel
M: 4/4
K: Amajor
|:ABcd eAce|fAdf edcB|ABcd eAce|1 fdBc d2cB:|2 fdBc defg||
aAAA eAce|aAgA fefg|aAAA eAce|fdBc defg|
aAAA eAce|aAgA fefg|a2ga faec|dcBc dBcB|
|:Aece Aece|Aece d2cB|Aece Aece|fdBc d2cB:|

